X:43
T:Gravel Walk
R:reel
E:7
I:speed 350
M:C|
K:ADor
|:A2 eA (3cBA eA|A2 ed BAGB|A2eA (3Bcd ef|gedc BAGB:|\
~A2aA gAfA|~A2ed BAGB|~A2 aA gAfA|gedc BAGB|\
~A2aA gAfA|~A2ed BAGB|ABcd efga|gedc BAGB\
|:(3cBA BG A3B|cAAd BGBd|(3cBA BG ABcd|efge dBGB:|\
~c2 gc acgc|~c2 gc BAGB|~c2 gc acga|gedc BAGB|\
~c2 gc acgc|~c2 gc BAGB| ABcd efga|gedc BAGB||**
<end>
<start>
